icons/svg/cart-outline.svg

﻿<?xml version="1.0" encoding="utf-8"?>
<!DOCTYPE svg PUBLIC "-//W3C//DTD SVG 1.1//EN" "http://www.w3.org/Graphics/SVG/1.1/DTD/svg11.dtd">
<svg xmlns="http://www.w3.org/2000/svg" xmlns:xlink="http://www.w3.org/1999/xlink" version="1.1" baseProfile="full" width="24" height="24" viewBox="0 0 24.00 24.00" enable-background="new 0 0 24.00 24.00" xml:space="preserve">
	<path fill="#000000" fill-opacity="1" stroke-width="0.2" stroke-linejoin="round" d="M 16.9994,17.9981C 18.1034,17.9981 18.9994,18.8931 18.9994,19.9981C 18.9994,21.1031 18.1034,21.9981 16.9994,21.9981C 15.8944,21.9981 15.0094,21.1031 15.0094,19.9981C 15.0094,18.8931 15.8944,17.9981 16.9994,17.9981 Z M 0.999389,1.99807L 4.2654,1.99807L 5.21238,3.99807L 19.9994,3.99807C 20.5514,3.99807 20.9994,4.44507 20.9994,4.99807C 20.9994,5.17308 20.9544,5.33808 20.8754,5.48006L 17.2994,11.9691C 16.9574,12.5831 16.3024,12.9981 15.5504,12.9981L 8.1014,12.9981L 7.20439,14.6271L 7.1724,14.7481C 7.1724,14.8871 7.28438,14.9981 7.4224,14.9981L 18.9994,14.9981L 18.9994,16.9981L 6.99939,16.9981C 5.89439,16.9981 4.99939,16.1031 4.99939,14.9981C 4.99939,14.6501 5.0884,14.3221 5.24438,14.0371L 6.59607,11.5851L 2.99939,3.99807L 0.999389,3.99807L 0.999389,1.99807 Z M 6.99939,17.9981C 8.10339,17.9981 8.99939,18.8931 8.99939,19.9981C 8.99939,21.1031 8.10339,21.9981 6.99939,21.9981C 5.89439,21.9981 5.00938,21.1031 5.00938,19.9981C 5.00938,18.8931 5.89439,17.9981 6.99939,17.9981 Z M 16,11L 18.7778,6L 6.13889,6L 8.5,11L 16,11 Z "/>
</svg>

<svg xmlns="http://www.w3.org/2000/svg" version="1.1" baseProfile="full" width="24" height="24" viewBox="0 0 24.00 24.00" xml:space="preserve"><path fill="#000" fill-opacity="1" stroke-width=".2" stroke-linejoin="round" d="M17 17.998c1.103 0 2 .895 2 2s-.897 2-2 2c-1.106 0-1.99-.895-1.99-2s.884-2 1.99-2zm-16-16h3.265l.947 2H20c.55 0 1 .447 1 1 0 .175-.046.34-.125.482L17.3 11.97c-.343.613-.998 1.028-1.75 1.028H8.1l-.896 1.63-.032.12c0 .14.112.25.25.25H19v2H7c-1.106 0-2-.895-2-2 0-.348.088-.676.244-.96l1.352-2.453L3 3.998H1v-2zm6 16c1.103 0 2 .895 2 2s-.897 2-2 2c-1.106 0-1.99-.895-1.99-2s.884-2 1.99-2zM16 11l2.778-5H6.138L8.5 11H16z"/></svg>
